aliba_games/img/icon-article.svg

<svg version="1.1" id="Слой_1" xmlns="http://www.w3.org/2000/svg" xmlns:xlink="http://www.w3.org/1999/xlink" x="0" y="0" viewBox="0 0 14 14" xml:space="preserve"><style>.st1{fill:#fff}</style><defs><path id="SVGID_1_" d="M1.7 1.7h10.5v10.5H1.7z"/></defs><clipPath id="SVGID_00000087372072005528827030000000715377760952854673_"><use xlink:href="#SVGID_1_" overflow="visible"/></clipPath><g clip-path="url(#SVGID_00000087372072005528827030000000715377760952854673_)"><path class="st1" d="M12 2H4.4c-.2 0-.3.2-.3.3v8.8c0 .3-.1.6-.3.9h7c.8 0 1.5-.7 1.5-1.5V2.3c0-.1-.2-.3-.3-.3zm-1.8 7.6H6.1c-.1 0-.3-.1-.3-.3 0-.2.1-.3.3-.3h4.1c.2 0 .3.1.3.3 0 .2-.1.3-.3.3zm0-1.7H6.1c-.1 0-.3-.1-.3-.3s.2-.3.3-.3h4.1c.2 0 .3.1.3.3s-.1.3-.3.3zm0-1.8H6.1c-.1 0-.3-.1-.3-.3 0-.2.1-.3.3-.3h4.1c.2 0 .3.1.3.3 0 .2-.1.3-.3.3zm0-1.7H6.1c-.1 0-.3-.1-.3-.3 0-.2.1-.3.3-.3h4.1c.2 0 .3.1.3.3 0 .2-.1.3-.3.3zM3.2 3.2H2c-.2 0-.3.1-.3.3v7.6c0 .5.4.9.9.9s.9-.4.9-.9V3.5c0-.2-.1-.3-.3-.3z"/></g></svg>

<?xml version="1.0" encoding="utf-8"?>
<!-- Generator: Adobe Illustrator 26.0.1, SVG Export Plug-In . SVG Version: 6.00 Build 0)  -->
<svg version="1.1" id="Слой_1" xmlns="http://www.w3.org/2000/svg" xmlns:xlink="http://www.w3.org/1999/xlink" x="0px" y="0px"
	 viewBox="0 0 14 14" style="enable-background:new 0 0 14 14;" xml:space="preserve">
<style type="text/css">
	.st0{clip-path:url(#SVGID_00000136386128897030818550000003020129603896776859_);}
	.st1{fill:#FFFFFF;}
</style>
<g>
	<defs>
		<rect id="SVGID_1_" x="1.7" y="1.7" width="10.5" height="10.5"/>
	</defs>
	<clipPath id="SVGID_00000087372072005528827030000000715377760952854673_">
		<use xlink:href="#SVGID_1_"  style="overflow:visible;"/>
	</clipPath>
	<g style="clip-path:url(#SVGID_00000087372072005528827030000000715377760952854673_);">
		<path class="st1" d="M12,2H4.4C4.2,2,4.1,2.2,4.1,2.3v8.8c0,0.3-0.1,0.6-0.3,0.9h7c0.8,0,1.5-0.7,1.5-1.5V2.3
			C12.3,2.2,12.1,2,12,2L12,2z M10.2,9.6H6.1C6,9.6,5.8,9.5,5.8,9.3c0-0.2,0.1-0.3,0.3-0.3h4.1c0.2,0,0.3,0.1,0.3,0.3
			C10.5,9.5,10.4,9.6,10.2,9.6z M10.2,7.9H6.1C6,7.9,5.8,7.8,5.8,7.6S6,7.3,6.1,7.3h4.1c0.2,0,0.3,0.1,0.3,0.3S10.4,7.9,10.2,7.9z
			 M10.2,6.1H6.1C6,6.1,5.8,6,5.8,5.8c0-0.2,0.1-0.3,0.3-0.3h4.1c0.2,0,0.3,0.1,0.3,0.3C10.5,6,10.4,6.1,10.2,6.1z M10.2,4.4H6.1
			C6,4.4,5.8,4.3,5.8,4.1c0-0.2,0.1-0.3,0.3-0.3h4.1c0.2,0,0.3,0.1,0.3,0.3C10.5,4.3,10.4,4.4,10.2,4.4z"/>
		<path class="st1" d="M3.2,3.2H2c-0.2,0-0.3,0.1-0.3,0.3v7.6c0,0.5,0.4,0.9,0.9,0.9c0.5,0,0.9-0.4,0.9-0.9V3.5
			C3.5,3.3,3.4,3.2,3.2,3.2z"/>
	</g>
</g>
</svg>
